!!!COM:	Bach, Johann Sebastian
!!!OMV:	Was mein Gott will, das g'scheh allzeit
!!!OTL:	Was mein Gott will, das g'scheh allzeit
**kern	**fb	**kern	**kern	**kern	**kern
*part5	*part5	*part4	*part3	*part2	*part1
*staff5	*	*staff4	*staff3	*staff2	*staff1
*I"Continuo	*	*I"Voice	*I"Voice	*I"Voice	*I"Voice
*I'Cont.	*	*I'V	*I'V	*I'V	*I'V
*clefF4	*	*clefF4	*clefGv2	*clefG2	*clefG2
*Trd0c0	*	*	*	*	*
*k[f#c#]	*	*k[f#c#]	*k[f#c#]	*k[f#c#]	*k[f#c#]
*M4/4	*	*M4/4	*M4/4	*M4/4	*M4/4
4B	.	4B	4B	4d	8f#L
.	.	.	.	.	8gJ
=2	=2	=2	=2	=2	=2
4F#	6	4F#	4A	4d	4a
4G	.	4G	4G	4d	4b
8DL	.	8DL	8F#L	4d	4a
8E	.	8E	8G	.	.
8F#	6	8F#	8A	8dL	4dd
8GJ	6 5	8GJ	8BJ	8eJ	.
=3	=3	=3	=3	=3	=3
4A	6 4	4A	4A	8f#L	4dd
.	.	.	.	8gJ	.
4AA	5 3	4AA	4e	4a	4cc#
4D;	.	4D;	4f#;	4a;	4dd;
4BB	#6\	4BB	8eL	4g#X	4dd
.	.	.	8dJ	.	.
=4	=4	=4	=4	=4	=4
4AA	.	4AA	8eL	4a	4cc#
.	.	.	8f#J	.	.
8EL	n	8EL	4g	8gnL	4b
8F#J	.	8F#J	.	8aJ	.
8GL	6	8GL	4g	4b	4ee
8AJ	.	8AJ	.	.	.
4B	.	4B	4f#	4b	8ddL
.	.	.	.	.	8cc#J
=	=	=	=	=	=
4E	6 5	4E	4g	4b	2cc#
4F#	#	4F#	8f#L	4a#X	.
.	.	.	8eJ	.	.
4BB;	.	4BB;	4d;	4f#;	4b;
=5:|!	=5:|!	=5:|!	=5:|!	=5:|!	=5:|!
8BL	.	8BL	8dL	4f#	4b
8AJ	.	8AnJ	8c#J	.	.
=6	=6	=6	=6	=6	=6
!!linebreak:original
8G#XL	6	8G#XL	4B	8eL	4b
8F#J	.	8F#J	.	8f#J	.
4E	8 #	4E	8eL	4g#X	4b
.	7	.	8dJ	.	.
4E#X	6	4E#X	4c#	4g#	8cc#L
.	5	.	.	.	8bJ
8F#L	.	8F#L	4c#	4f#	4a
8EnJ	.	8EnJ	.	.	.
=7	=7	=7	=7	=7	=7
4D#X	6 5	4D#X	4B	4f#	4a
4E	6 #	4E	8c#L	4e	4g#X
.	7	.	8dJ	.	.
4AA;	.	4AA;	4c#;	4e;	4a;
4Dn	.	4Dn	4d	4f#	4a
=8	=8	=8	=8	=8	=8
4GG#X	7 5	4GG#X	8dL	8f#L	4b
.	6	.	8c#J	8eJ	.
4AA#X	6 5	4AA#X	8c#L	8eL	4cc#
.	.	.	8BJ	8dJ	.
4BB	.	4BB	8BL	4d	4dd
.	.	.	8A#XJ	.	.
4C#	#6\	4C#	8A#L	4e	4cc#
.	.	.	8G#XJ	.	.
=9	=9	=9	=9	=9	=9
4D	6	4D	8F#L	4f#	2b
.	.	.	8BJ	.	.
4BB	#6\ #4| 3	4BB	8dL	8g#XL	.
.	.	.	8G#XJ	8e#XJ	.
4F#;	#	4F#;	4A#X;	4f#;	4cc#;
4B	5	4B	4d	4f#	8f#L
.	6	.	.	.	8gJ
=10	=10	=10	=10	=10	=10
!!pagebreak:original
4A	6	4An	4c#	4f#	4a
4G#X	7	4G#X	8dL	8f#L	4b
.	#6\	.	8BJ	8e#XJ	.
4F#	.	4F#	4c#	4f#	4a
8BL	.	8BL	8dL	4f#	4dd
8AJ	.	8AJ	8c#J	.	.
=11	=11	=11	=11	=11	=11
4G#X	6 5	4G#X	4B	4en	4dd
4A	.	4A	4A	8f#L	4cc#
.	.	.	.	8gnJ	.
4D;	.	4D;	4A;	4f#;	4dd;
8F#L	6	8F#L	8AL	4f#	4dd
8G#J	.	8G#J	8BJ	.	.
=12	=12	=12	=12	=12	=12
4A	.	4A	8c#L	8eL	4cc#
.	.	.	8d#XJ	8f#J	.
4G#X	6	4G#X	4e	8g#XL	4b
.	.	.	.	8a#XJ	.
4Gn	6	4Gn	8BL	4b	4ee
.	.	.	8c#J	.	.
4F#	6 4	4F#	4dn	4b	8ddL
.	.	.	.	.	8cc#J
=13	=13	=13	=13	=13	=13
4E#X	6 5	4E#X	4G#X	4b	2cc#
4F#	#	4F#	4c#	4a#X	.
4BB;	#	4BB;	4d#X;	4f#;	4b;
=||	=||	=||	=||	=||	=||
*-	*-	*-	*-	*-	*-
!!!system-decoration: s1,s2,s3,s4,s5
